svgs/sharp-regular/shapes.svg

<svg xmlns="http://www.w3.org/2000/svg" viewBox="0 0 512 512"><!--! Font Awesome Pro 6.6.0 by @fontawesome - https://fontawesome.com License - https://fontawesome.com/license (Commercial License) Copyright 2024 Fonticons, Inc. --><path d="M160 224l55.3 0 145.4 0 55.3 0-27.4-48L315.6 48.4 288 0 260.4 48.4 187.4 176 160 224zM288 96.7L333.3 176l-90.6 0L288 96.7zM128 304a80 80 0 1 1 0 160 80 80 0 1 1 0-160zm0 208a128 128 0 1 0 0-256 128 128 0 1 0 0 256zM464 320l0 128-128 0 0-128 128 0zM336 272l-48 0 0 48 0 128 0 48 48 0 128 0 48 0 0-48 0-128 0-48-48 0-128 0z"/></svg>

<svg xmlns="http://www.w3.org/2000/svg" viewBox="0 0 512 512"><!--! Font Awesome Pro 6.4.2 by @fontawesome - https://fontawesome.com License - https://fontawesome.com/license (Commercial License) Copyright 2023 Fonticons, Inc. --><path d="M160 224h55.3H360.7 416l-27.4-48L315.6 48.4 288 0 260.4 48.4 187.4 176 160 224zM288 96.7L333.3 176H242.7L288 96.7zM128 304a80 80 0 1 1 0 160 80 80 0 1 1 0-160zm0 208a128 128 0 1 0 0-256 128 128 0 1 0 0 256zM464 320V448H336V320H464zM336 272H288v48V448v48h48H464h48V448 320 272H464 336z"/></svg>
